apex/img/our-stats-item-icon3.svg

<svg width="79" height="79" viewBox="0 0 79 79" fill="none" xmlns="http://www.w3.org/2000/svg">
<path d="M0 69.6685V31.0136C0 19.0593 9.72752 9.33179 21.6818 9.33179H57.313C69.2699 9.33179 79 19.0593 79 31.0136V37.6809C79 49.6353 69.2725 59.3628 57.3182 59.3628H22.1845L0 69.6685ZM21.6818 14.1656C12.3919 14.1656 4.83381 21.7236 4.83381 31.0136V62.0922L21.1193 54.5264H57.3182C66.6081 54.5264 74.1662 46.9683 74.1662 37.6783V31.011C74.1662 21.721 66.6055 14.163 57.313 14.163H21.6818V14.1656ZM23.2757 30.6464C25.8151 30.6464 27.8725 32.7039 27.8725 35.2432C27.8725 37.7825 25.8151 39.84 23.2757 39.84C20.7364 39.84 18.6789 37.7825 18.6789 35.2432C18.6789 32.7039 20.7364 30.6464 23.2757 30.6464ZM55.7217 30.6464C58.261 30.6464 60.3185 32.7039 60.3185 35.2432C60.3185 37.7825 58.261 39.84 55.7217 39.84C53.1823 39.84 51.1248 37.7825 51.1248 35.2432C51.1248 32.7039 53.1823 30.6464 55.7217 30.6464ZM39.4961 30.6464C42.0354 30.6464 44.0929 32.7039 44.0929 35.2432C44.0929 37.7825 42.0354 39.84 39.4961 39.84C36.9568 39.84 34.8993 37.7825 34.8993 35.2432C34.8993 32.7039 36.9568 30.6464 39.4961 30.6464Z" fill="#E5A132"/>
</svg>

<svg width="79" height="79" fill="none" xmlns="http://www.w3.org/2000/svg"><path d="M0 69.668V31.014C0 19.059 9.728 9.332 21.682 9.332h35.631C69.27 9.332 79 19.059 79 31.014v6.667c0 11.954-9.728 21.682-21.682 21.682H22.185L0 69.668zm21.682-55.502c-9.29 0-16.848 7.558-16.848 16.848v31.078l16.285-7.566h36.2c9.29 0 16.847-7.558 16.847-16.848v-6.667c0-9.29-7.56-16.848-16.853-16.848H21.682v.003zm1.594 16.48a4.596 4.596 0 014.596 4.597 4.596 4.596 0 11-4.597-4.597zm32.446 0a4.596 4.596 0 110 9.194 4.596 4.596 0 110-9.194zm-16.226 0a4.596 4.596 0 110 9.194 4.596 4.596 0 110-9.194z" fill="#E5A132"/></svg>
